svg/UnitedNations-Flags/flag-sc.svg

<?xml version="1.0" encoding="UTF-8" standalone="no"?>
<svg height="256" id="Flag of the Seychelles" inkscape:output_extension="org.inkscape.output.svg.inkscape" inkscape:version="0.46" sodipodi:docname="Flag_of_the_Seychelles.svg" sodipodi:version="0.32" version="1.0" width="256" xmlns="http://www.w3.org/2000/svg" xmlns:cc="http://creativecommons.org/ns#" xmlns:dc="http://purl.org/dc/elements/1.1/" xmlns:inkscape="http://www.inkscape.org/namespaces/inkscape" xmlns:rdf="http://www.w3.org/1999/02/22-rdf-syntax-ns#" xmlns:sodipodi="http://sodipodi.sourceforge.net/DTD/sodipodi-0.dtd" xmlns:svg="http://www.w3.org/2000/svg">
  <metadata>
    <rdf:RDF xmlns:cc="http://web.resource.org/cc/" xmlns:dc="http://purl.org/dc/elements/1.1/" xmlns:rdf="http://www.w3.org/1999/02/22-rdf-syntax-ns#">
      <cc:Work rdf:about="">
        <dc:title></dc:title>
        <dc:description></dc:description>
        <dc:subject>
          <rdf:Bag>
            <rdf:li>unsorted</rdf:li>
          </rdf:Bag>
        </dc:subject>
        <dc:publisher>
          <cc:Agent rdf:about="http://www.openclipart.org/">
            <dc:title>Open Clip Art Library, Source: Wikimedia Commons, Source: Wikimedia Commons, Source: Wikimedia Commons, Source: Wikimedia Commons</dc:title>
          </cc:Agent>
        </dc:publisher>
        <dc:creator>
          <cc:Agent>
            <dc:title></dc:title>
          </cc:Agent>
        </dc:creator>
        <dc:rights>
          <cc:Agent>
            <dc:title></dc:title>
          </cc:Agent>
        </dc:rights>
        <dc:date></dc:date>
        <dc:format>image/svg+xml</dc:format>
        <dc:type rdf:resource="http://purl.org/dc/dcmitype/StillImage"/>
        <cc:license rdf:resource="http://en.wikipedia.org/wiki/Public_domain"/>
        <dc:language>en</dc:language>
      </cc:Work>
    </rdf:RDF>
  </metadata>
  <defs id="defs2590">
    <inkscape:perspective id="perspective2594" inkscape:persp3d-origin="450 : 150 : 1" inkscape:vp_x="0 : 225 : 1" inkscape:vp_y="0 : 1000 : 0" inkscape:vp_z="900 : 225 : 1" sodipodi:type="inkscape:persp3d"/>
  </defs>
  <sodipodi:namedview bordercolor="#666666" borderopacity="1.0" gridtolerance="10.0" guidetolerance="10.0" id="base" inkscape:current-layer="Flag of the Seychelles" inkscape:cx="450" inkscape:cy="225" inkscape:pageopacity="0.0" inkscape:pageshadow="2" inkscape:window-height="674" inkscape:window-width="846" inkscape:window-x="63" inkscape:window-y="241" inkscape:zoom="0.62111111" objecttolerance="10.0" pagecolor="#ffffff" showgrid="false"/>
  <rect height="128" id="rect2579" style="fill:#d62828" width="256" x="0" y="64"/>
  <path d="M 0,64 L 170.66667,64 L 0,192 L 0,64 z" id="path2581" style="fill:#fcd856"/>
  <path d="M 256,106.66667 L 256,192 L 0,192 L 256,106.66667 z" id="path2583" style="fill:#ffffff"/>
  <path d="M 0,64 L 85.333333,64 L 0,192 L 0,64 z" id="path2585" style="fill:#003f87"/>
  <path d="M 256,149.33333 L 256,192 L 0,192 L 256,149.33333 z" id="path2587" style="fill:#007a3d"/>
</svg>

<svg xmlns="http://www.w3.org/2000/svg" viewBox="0 0 256 256"><path fill="#d62828" d="m0 64h256v128h-256z"/><path d="m0 64h170.67l-170.67 128v-128" fill="#fcd856"/><path d="m256 106.67v85.33h-256l256-85.33" fill="#fff"/><path d="m0 64h85.33l-85.33 128v-128" fill="#003f87"/><path d="m256 149.33v42.667h-256l256-42.667" fill="#007a3d"/></svg>
